images/copy.svg

<svg width="12" height="14" viewBox="0 0 12 14" fill="none" xmlns="http://www.w3.org/2000/svg">
<rect x="3.5" y="0.5" width="8" height="10" rx="0.5" stroke="#04B79C"/>
<path fill-rule="evenodd" clip-rule="evenodd" d="M3 3H1C0.447715 3 0 3.44771 0 4V13C0 13.5523 0.447715 14 1 14H8C8.55229 14 9 13.5523 9 13V11H8V13H1L1 4H3V3Z" fill="#04B79C"/>
</svg>

<svg xmlns="http://www.w3.org/2000/svg" width="12" height="14" fill="none" xmlns:v="https://vecta.io/nano"><rect x="3.5" y=".5" width="8" height="10" rx=".5" stroke="#04b79c"/><path fill-rule="evenodd" d="M3 3H1a1 1 0 0 0-1 1v9a1 1 0 0 0 1 1h7a1 1 0 0 0 1-1v-2H8v2H1V4h2V3z" fill="#04b79c"/></svg>
